themes/sector_starter/build/sprite/arrow--micro-down-dark-blue.svg

<svg xmlns="http://www.w3.org/2000/svg" width="11" height="6" viewBox="0 0 11 6"><path fill="#003259" d="M5.5 4.15l-4.344-4.05c-.055-.074-.139-.1-.249-.1s-.192.026-.246.1l-.551.525c-.083.05-.11.15-.11.226 0 .101.027.174.11.224l5.143 4.825c.055.076.164.1.247.1.082 0 .192-.024.247-.1l5.143-4.799c.081-.076.11-.149.11-.226 0-.1-.029-.175-.109-.225l-.549-.525c-.084-.076-.166-.099-.248-.099s-.194.024-.25.099l-4.344 4.025z"/></svg>

<svg xmlns="http://www.w3.org/2000/svg" width="11" height="6"><path fill="#003259" d="M5.5 4.15L1.156.1C1.101.026 1.017 0 .907 0S.715.026.661.1L.11.625C.027.675 0 .775 0 .851c0 .101.027.174.11.224L5.253 5.9c.055.076.164.1.247.1.082 0 .192-.024.247-.1l5.143-4.799c.081-.076.11-.149.11-.226 0-.1-.029-.175-.109-.225l-.549-.525c-.084-.076-.166-.099-.248-.099S9.9.05 9.844.125L5.5 4.15z"/></svg>
